img/logo.svg

<svg width="121" height="50" fill="none" xmlns="http://www.w3.org/2000/svg"><path d="M18.8974 0c-4.1691 0-8.1675 1.65618-11.11555 4.6042-2.94802 2.94803-4.60421 6.9464-4.60421 11.1155.01263.7521.07641 1.5024.19089 2.2457 1.71205-1.4528 3.88529-2.2489 6.1307-2.2457 0-1.8698.55447-3.6977 1.59337-5.2525 1.0388-1.55474 2.5154-2.76652 4.2429-3.4821 1.7276-.71557 3.6285-.9028 5.4625-.538 1.8339.3648 3.5185 1.26523 4.8407 2.58744 1.3222 1.32216 2.2227 3.00676 2.5875 4.84076.3648 1.834.1775 3.7349-.538 5.4624-.7156 1.7276-1.9274 3.2042-3.4821 4.243-1.5548 1.0389-3.3827 1.5933-5.2526 1.5933.0032 2.2454-.7928 4.4187-2.2457 6.1307.7434.1121 1.494.1684 2.2457.1685 4.1692 0 8.1675-1.6562 11.1156-4.6042 2.948-2.9481 4.6042-6.9464 4.6042-11.1156 0-4.1691-1.6562-8.16749-4.6042-11.11551C27.121 1.68987 23.1227.0336852 18.9535.0336852" fill="#fff"/><path d="M3.36853 17.9653c-.99638.8413-1.80774 1.8798-2.382935 3.0501-.575198 1.1703-.9017729 2.447-.9591467 3.7498-.0573738 1.3028.1556967 2.6033.6257857 3.8196.470086 1.2164 1.187006 2.3222 2.105586 3.2477.91857.9256 2.0189 1.6509 3.23163 2.1302 1.21274.4793 2.51161.7023 3.81477.6548 1.30318-.0475 2.58238-.3644 3.75698-.9307 1.1747-.5663 2.2193-1.3697 3.0681-2.3597-3.3564-.4977-6.4616-2.0681-8.85168-4.4764-2.39011-2.4083-3.93684-5.5254-4.40909-8.8854z" fill="#FCD502"/><path d="M9.44306 15.7197c-2.22609.0101-4.37724.8053-6.07456 2.2457.47225 3.36 2.01898 6.477 4.40909 8.8854 2.39011 2.4083 5.49531 3.9786 8.85161 4.4764 1.4529-1.7121 2.2489-3.8853 2.2457-6.1307-1.2416-.003-2.4704-.2504-3.6163-.7283-1.1459-.4778-2.1865-1.1767-3.0623-2.0567-.8759-.88-1.5698-1.9239-2.0422-3.0721-.47238-1.1481-.714-2.3781-.71104-3.6197z" fill="#A6ACB0"/><path d="M18.8974 25.1965v-9.4768H9.44308c0 2.5075.99612 4.9122 2.76912 6.6852 1.773 1.7731 4.1777 2.7691 6.6852 2.7691" fill="#FCD502"/><path d="M47.1031 18.3023v3.9299h4.7833v2.5264h-4.7833v6.7146h-2.998v-15.731h8.2866v2.5601h-5.2886zM60.0831 22.0637c-.4348-.1224-.8846-.1829-1.3362-.1797-.5014-.0091-1.0001.0747-1.4709.247v9.3084h-2.9531V20.3457c1.5243-.5767 3.1423-.8661 4.7721-.8533.5112-.0049 1.022.0327 1.527.1122l-.5389 2.4591zM66.8762 21.8167c-1.5607 0-2.3467 1.4148-2.3467 3.7615s.786 3.7391 2.3467 3.7391c1.5608 0 2.3468-1.3924 2.3468-3.7391 0-2.3467-.7748-3.7615-2.3468-3.7615zm0 9.9147c-3.3685 0-5.2998-2.6275-5.2998-6.1307 0-3.5033 1.8864-6.1083 5.2998-6.1083 3.4135 0 5.3111 2.6162 5.3111 6.1083 0 3.492-1.8976 6.1307-5.3111 6.1307zM81.2037 31.4395v-7.6803c.0162-.2682-.0276-.5366-.1282-.7857-.1007-.2492-.2555-.4728-.4534-.6545-.1979-.1818-.4338-.3171-.6906-.3962s-.528-.1-.7938-.0612c-.599-.003-1.1945.0918-1.7629.2807v9.2972h-2.953V20.3458c1.4853-.5903 3.0729-.8804 4.671-.8533 3.4808 0 5.0864 1.4372 5.0864 3.9636v7.9834h-2.9755zM90.7591 31.6414c-2.2457 0-3.3686-1.2351-3.3686-3.6941v-5.9735h-1.4597v-2.2457h1.5047v-2.5825l2.9081-.8421v3.4583h2.2457v2.2457h-2.2457v5.7826c-.0299.1809-.015.3663.0433.5401.0583.1739.1583.3307.2912.457.1329.1263.2947.2181.4713.2674.1765.0493.3625.0547.5416.0155.2921-.0057.581-.0627.8534-.1684v2.4478c-.5668.2289-1.1743.3397-1.7853.3256M94.689 19.7619h2.9979v11.6775H94.689V19.7619zm1.4821-1.8751c-.3131-.0176-.6143-.1264-.8663-.3132-.2519-.1867-.4437-.4432-.5516-.7377-.1078-.2945-.1271-.6142-.0554-.9195.0718-.3053.2313-.5829.4591-.7986.2277-.2157.5136-.3599.8224-.4149.3087-.055.6269-.0184.9151.1053s.5338.3292.7066.5909c.1728.2618.2651.5684.2656.882-.0058.2168-.0543.4303-.1427.6284-.0884.198-.2149.3767-.3723.5258-.1575.1491-.3428.2657-.5453.3432-.2026.0775-.4184.1143-.6352.1083zM105.3 21.6483c-1.539 0-2.628 1.1228-2.673 3.3685l4.907-.6737c0-1.7629-.864-2.6499-2.245-2.6499l.011-.0449zm5.064 4.1769l-7.546 1.0218c.099.7665.494 1.4638 1.1 1.9424.607.4786 1.377.7004 2.145.6177 1.128.0028 2.241-.2506 3.257-.7411l.853 2.2457c-1.368.5861-2.846.8732-4.334.8421-3.863-.0224-5.9064-2.56-5.9064-6.1531s2.0214-6.1083 5.4344-6.1083c3.234 0 5.042 2.1334 5.042 5.3335.022.3328.022.6666 0 .9993M118.403 22.0637c-.431-.1224-.877-.1829-1.325-.1797-.505-.0089-1.007.0748-1.482.247v9.3084h-2.953V20.3457c1.528-.5766 3.15-.8659 4.783-.8533.508-.0049 1.015.0326 1.516.1122l-.539 2.4591zM52.9307 47.1591l-.8871-7.0738c-.0674-.539-.1235-1.1229-.1235-1.1229s-.1235.6176-.2807 1.1229l-2.2344 7.0738h-.831l-2.1783-7.0738c-.1572-.539-.2919-1.1229-.2919-1.1229s0 .6176-.101 1.1229l-.8983 7.0738H44.049l1.2464-9.4318h1.3361l2.0885 6.737c.1572.5165.2807 1.1229.2807 1.1229s.1123-.6176.2695-1.1229l2.0885-6.737h1.4148l1.2126 9.4318h-1.0554zM62.9351 47.1591h-1.1789l-1.6057-6.6247c-.146-.6063-.2358-1.28-.2358-1.28s-.0898.6737-.2358 1.28l-1.673 6.6247H56.883l-2.3916-9.4318h1.1228l1.6506 6.9055c.1347.5614.2358 1.2575.2358 1.2575s.1123-.6961.2358-1.2575l1.6843-6.8606h.9881l1.6842 6.8606c.1235.5614.2358 1.2575.2358 1.2575s.1011-.6961.2358-1.2575l1.6169-6.8606h1.1228l-2.3692 9.3869zM68.83 38.5918c-.4658-.0133-.9301.059-1.3698.2134v7.3546c.4375.1637.9029.24 1.3698.2245 1.6057 0 2.897-1.1789 2.897-3.8962s-1.2913-3.8963-2.897-3.8963zm0 8.747c-.8464.0228-1.687-.1461-2.459-.4941v-8.6683c.7737-.3426 1.6131-.5113 2.459-.4941 2.358 0 4.076 1.6169 4.076 4.8619s-1.718 4.8507-4.076 4.8507M78.9804 47.3389c-.7766.0109-1.5453-.1582-2.2456-.494l.3817-.9769c.5695.2951 1.2002.4527 1.8415.4604 1.2014 0 2.0436-.5951 2.0436-1.6394 0-1.0442-.8309-1.3923-1.718-1.7853-1.1228-.5277-2.459-1.1789-2.459-2.7285.002-.3644.0812-.7243.2323-1.056s.3706-.6276.6443-.8684c.2736-.2407.5951-.4208.9433-.5285.3482-.1076.7153-.1403 1.077-.0959.7165-.0194 1.4254.1511 2.0548.494l-.3817.9208c-.5139-.2796-1.0881-.4299-1.6731-.4379-1.0554 0-1.8077.5614-1.8077 1.527 0 .9657.9431 1.4148 1.8077 1.8078 1.1229.494 2.3692 1.1228 2.3692 2.6948 0 1.572-1.2688 2.706-3.1439 2.706M85.0776 50.0001h-1.1229l1.0443-2.8408-2.6387-7.0289h1.1902l1.7853 5.1538c.1002.3322.1827.6696.247 1.0106.0583-.3423.1408-.68.2471-1.0106l1.7516-5.1089h1.1228l-3.6267 9.8248zM91.1858 47.339c-.7214-.0013-1.4326-.1704-2.0773-.4941l.3818-.8084c.5201.2753 1.096.4289 1.6842.4491.8983 0 1.5046-.4491 1.5046-1.1228s-.6063-1.033-1.426-1.3362c-.8196-.3032-1.9649-.8084-1.9649-2.066 0-1.2576.8421-1.8976 2.3355-1.8976.6849-.011 1.36.1636 1.9537.5053l-.3817.7635c-.4454-.2652-.9527-.4085-1.471-.4155-.8533 0-1.3249.4492-1.3249 1.0443s.5726.9993 1.3474 1.2912c1.0442.3818 2.066.786 2.066 2.111 0 1.3249-.9656 2.0099-2.6274 2.0099M97.1704 47.2827c-.2546.026-.5118-.0061-.7522-.0937-.2405-.0876-.458-.2285-.6362-.4122-.1783-.1836-.3126-.4052-.393-.6482-.0804-.243-.1048-.501-.0713-.7547v-4.3791h-.9993v-.8196h1.0106v-1.6955l1.0554-.3481v2.0436h1.5159v.8196h-1.5271v4.3342c-.0096.1381.0117.2767.0623.4055.0507.1289.1294.2449.2305.3395.1011.0946.222.1656.3539.2076.1319.0421.2716.0542.4088.0355.1558-.0008.3108-.0234.4603-.0674v.9095c-.2292.0875-.4733.1295-.7186.1235zM101.482 40.8713c-1.235 0-2.0322.9881-2.0546 2.5713l3.8736-.539c0-1.3811-.718-2.0323-1.774-2.0323h-.045zm2.852 2.6387l-4.7943.6961c-.0004.3046.0612.6061.181.8861.1198.2801.2953.5328.5163.7429.22.2101.481.3731.767.4791.285.106.589.1528.894.1376.662.0065 1.316-.1436 1.908-.4379l.349.8197c-.721.3465-1.514.5159-2.314.494-2.0992 0-3.368-1.3474-3.368-3.6605 0-2.313 1.1228-3.6492 3.065-3.6492.391-.0193.782.0471 1.144.1946.363.1474.688.3724.955.6591.266.2867.467.6282.587 1.0006.121.3723.158.7665.11 1.1549v.4716M113.687 47.1592v-4.7945c.008-.199-.028-.3971-.103-.5814-.075-.1843-.189-.3504-.333-.4874-.145-.137-.317-.2417-.505-.3071-.188-.0655-.387-.0902-.586-.0726-.282-.0108-.564.0376-.827.142-.263.1044-.501.2625-.7.4643v5.6367h-1.123v-4.963c0-.7972-.662-1.28-1.639-1.28-.475-.0028-.947.0809-1.392.247v5.996h-1.123v-6.6248c.766-.3305 1.591-.5024 2.425-.5052.411-.0333.823.0217 1.211.1611.387.1395.74.3602 1.035.6473.63-.5257 1.425-.812 2.246-.8084.309-.0307.621.0052.915.1052.294.1.564.2618.79.4745.227.2127.405.4714.524.7587.118.2874.173.5967.162.9072v4.8844h-.977zM117.831 47.3389c-.725-.0028-1.44-.1718-2.089-.4941l.393-.8309c.52.2754 1.096.4289 1.684.4492.899 0 1.494-.4492 1.494-1.1229s-.595-1.033-1.415-1.3362c-.82-.3031-1.965-.8084-1.965-2.066 0-1.2576.842-1.8976 2.324-1.8976.689-.0124 1.368.1622 1.965.5053l-.381.7635c-.446-.2637-.953-.4069-1.471-.4154-.854 0-1.337.4491-1.337 1.0442s.573.9993 1.359 1.2913c1.044.3817 2.055.786 2.055 2.1109 0 1.325-.955 2.0099-2.616 2.0099" fill="#fff"/></svg>

<svg width="121" height="50" viewBox="0 0 121 50" fill="none" xmlns="http://www.w3.org/2000/svg">
<path d="M18.8974 0C14.7283 0 10.7299 1.65618 7.78185 4.6042C4.83383 7.55223 3.17764 11.5506 3.17764 15.7197C3.19027 16.4718 3.25405 17.2221 3.36853 17.9654C5.08058 16.5126 7.25382 15.7165 9.49923 15.7197C9.49923 13.8499 10.0537 12.022 11.0926 10.4672C12.1314 8.91246 13.608 7.70068 15.3355 6.9851C17.0631 6.26953 18.964 6.0823 20.798 6.4471C22.6319 6.8119 24.3165 7.71233 25.6387 9.03454C26.9609 10.3567 27.8614 12.0413 28.2262 13.8753C28.591 15.7093 28.4037 17.6102 27.6882 19.3377C26.9726 21.0653 25.7608 22.5419 24.2061 23.5807C22.6513 24.6196 20.8234 25.174 18.9535 25.174C18.9567 27.4194 18.1607 29.5927 16.7078 31.3047C17.4512 31.4168 18.2018 31.4731 18.9535 31.4732C23.1227 31.4732 27.121 29.817 30.0691 26.869C33.0171 23.9209 34.6733 19.9226 34.6733 15.7534C34.6733 11.5843 33.0171 7.58591 30.0691 4.63789C27.121 1.68987 23.1227 0.0336852 18.9535 0.0336852" fill="white"/>
<path d="M3.36853 17.9653C2.37215 18.8066 1.56079 19.8451 0.985595 21.0154C0.410397 22.1857 0.0838221 23.4624 0.0264483 24.7652C-0.0309255 26.068 0.182145 27.3685 0.652234 28.5848C1.12232 29.8012 1.83924 30.907 2.75782 31.8325C3.67639 32.7581 4.77672 33.4834 5.98945 33.9627C7.20219 34.442 8.50106 34.665 9.80422 34.6175C11.1074 34.57 12.3866 34.2531 13.5612 33.6868C14.7359 33.1205 15.7805 32.3171 16.6293 31.3271C13.2729 30.8294 10.1677 29.259 7.77762 26.8507C5.38751 24.4424 3.84078 21.3253 3.36853 17.9653Z" fill="#FCD502"/>
<path d="M9.44306 15.7197C7.21697 15.7298 5.06582 16.525 3.3685 17.9654C3.84075 21.3254 5.38748 24.4424 7.77759 26.8508C10.1677 29.2591 13.2729 30.8294 16.6292 31.3272C18.0821 29.6151 18.8781 27.4419 18.8749 25.1965C17.6333 25.1935 16.4045 24.9461 15.2586 24.4682C14.1127 23.9904 13.0721 23.2915 12.1963 22.4115C11.3204 21.5315 10.6265 20.4876 10.1541 19.3394C9.68172 18.1913 9.4401 16.9613 9.44306 15.7197Z" fill="#A6ACB0"/>
<path d="M18.8974 25.1965V15.7197H9.44308C9.44308 18.2272 10.4392 20.6319 12.2122 22.4049C13.9852 24.178 16.3899 25.174 18.8974 25.174" fill="#FCD502"/>
<path d="M47.1031 18.3023V22.2322H51.8864V24.7586H47.1031V31.4732H44.1051V15.7422H52.3917V18.3023H47.1031Z" fill="white"/>
<path d="M60.0831 22.0637C59.6483 21.9413 59.1985 21.8808 58.7469 21.884C58.2455 21.8749 57.7468 21.9587 57.276 22.131V31.4394H54.3229V20.3457C55.8472 19.769 57.4652 19.4796 59.095 19.4924C59.6062 19.4875 60.117 19.5251 60.622 19.6046L60.0831 22.0637Z" fill="white"/>
<path d="M66.8762 21.8167C65.3155 21.8167 64.5295 23.2315 64.5295 25.5782C64.5295 27.9249 65.3155 29.3173 66.8762 29.3173C68.437 29.3173 69.223 27.9249 69.223 25.5782C69.223 23.2315 68.4482 21.8167 66.8762 21.8167ZM66.8762 31.7314C63.5077 31.7314 61.5764 29.1039 61.5764 25.6007C61.5764 22.0974 63.4628 19.4924 66.8762 19.4924C70.2897 19.4924 72.1873 22.1086 72.1873 25.6007C72.1873 29.0927 70.2897 31.7314 66.8762 31.7314Z" fill="white"/>
<path d="M81.2037 31.4395V23.7592C81.2199 23.491 81.1761 23.2226 81.0755 22.9735C80.9748 22.7243 80.82 22.5007 80.6221 22.319C80.4242 22.1372 80.1883 22.0019 79.9315 21.9228C79.6747 21.8437 79.4035 21.8228 79.1377 21.8616C78.5387 21.8586 77.9432 21.9534 77.3748 22.1423V31.4395H74.4218V20.3458C75.9071 19.7555 77.4947 19.4654 79.0928 19.4925C82.5736 19.4925 84.1792 20.9297 84.1792 23.4561V31.4395H81.2037Z" fill="white"/>
<path d="M90.7591 31.6414C88.5134 31.6414 87.3905 30.4063 87.3905 27.9473V21.9738H85.9308V19.7281H87.4355V17.1456L90.3436 16.3035V19.7618H92.5893V22.0075H90.3436V27.7901C90.3137 27.971 90.3286 28.1564 90.3869 28.3302C90.4452 28.5041 90.5452 28.6609 90.6781 28.7872C90.811 28.9135 90.9728 29.0053 91.1494 29.0546C91.3259 29.1039 91.5119 29.1093 91.691 29.0701C91.9831 29.0644 92.272 29.0074 92.5444 28.9017V31.3495C91.9776 31.5784 91.3701 31.6892 90.7591 31.6751" fill="white"/>
<path d="M94.689 19.7619H97.6869V31.4394H94.689V19.7619ZM96.1711 17.8868C95.858 17.8692 95.5568 17.7604 95.3048 17.5736C95.0529 17.3869 94.8611 17.1304 94.7532 16.8359C94.6454 16.5414 94.6261 16.2217 94.6978 15.9164C94.7696 15.6111 94.9291 15.3335 95.1569 15.1178C95.3846 14.9021 95.6705 14.7579 95.9793 14.7029C96.288 14.6479 96.6062 14.6845 96.8944 14.8082C97.1826 14.9319 97.4282 15.1374 97.601 15.3991C97.7738 15.6609 97.8661 15.9675 97.8666 16.2811C97.8608 16.4979 97.8123 16.7114 97.7239 16.9095C97.6355 17.1075 97.509 17.2862 97.3516 17.4353C97.1941 17.5844 97.0088 17.701 96.8063 17.7785C96.6037 17.856 96.3879 17.8928 96.1711 17.8868Z" fill="white"/>
<path d="M105.3 21.6483C103.761 21.6483 102.672 22.7711 102.627 25.0168L107.534 24.3431C107.534 22.5802 106.67 21.6932 105.289 21.6932L105.3 21.6483ZM110.364 25.8252L102.818 26.847C102.917 27.6135 103.312 28.3108 103.918 28.7894C104.525 29.268 105.295 29.4898 106.063 29.4071C107.191 29.4099 108.304 29.1565 109.32 28.666L110.173 30.9117C108.805 31.4978 107.327 31.7849 105.839 31.7538C101.976 31.7314 99.9326 29.1938 99.9326 25.6007C99.9326 22.0076 101.954 19.4924 105.367 19.4924C108.601 19.4924 110.409 21.6258 110.409 24.8259C110.431 25.1587 110.431 25.4925 110.409 25.8252" fill="white"/>
<path d="M118.403 22.0637C117.972 21.9413 117.526 21.8808 117.078 21.884C116.573 21.8751 116.071 21.9588 115.596 22.131V31.4394H112.643V20.3457C114.171 19.7691 115.793 19.4798 117.426 19.4924C117.934 19.4875 118.441 19.525 118.942 19.6046L118.403 22.0637Z" fill="white"/>
<path d="M52.9307 47.1591L52.0436 40.0853C51.9762 39.5463 51.9201 38.9624 51.9201 38.9624C51.9201 38.9624 51.7966 39.58 51.6394 40.0853L49.405 47.1591H48.574L46.3957 40.0853C46.2385 39.5463 46.1038 38.9624 46.1038 38.9624C46.1038 38.9624 46.1038 39.58 46.0028 40.0853L45.1045 47.1591H44.049L45.2954 37.7273H46.6315L48.72 44.4643C48.8772 44.9808 49.0007 45.5872 49.0007 45.5872C49.0007 45.5872 49.113 44.9696 49.2702 44.4643L51.3587 37.7273H52.7735L53.9861 47.1591H52.9307Z" fill="white"/>
<path d="M62.9351 47.1591H61.7562L60.1505 40.5344C60.0045 39.9281 59.9147 39.2544 59.9147 39.2544C59.9147 39.2544 59.8249 39.9281 59.6789 40.5344L58.0059 47.1591H56.883L54.4914 37.7273H55.6142L57.2648 44.6328C57.3995 45.1942 57.5006 45.8903 57.5006 45.8903C57.5006 45.8903 57.6129 45.1942 57.7364 44.6328L59.4207 37.7722H60.4088L62.093 44.6328C62.2165 45.1942 62.3288 45.8903 62.3288 45.8903C62.3288 45.8903 62.4299 45.1942 62.5646 44.6328L64.1815 37.7722H65.3043L62.9351 47.1591Z" fill="white"/>
<path d="M68.83 38.5918C68.3642 38.5785 67.8999 38.6508 67.4602 38.8052V46.1598C67.8977 46.3235 68.3631 46.3998 68.83 46.3843C70.4357 46.3843 71.727 45.2054 71.727 42.4881C71.727 39.7708 70.4357 38.5918 68.83 38.5918ZM68.83 47.3388C67.9836 47.3616 67.143 47.1927 66.371 46.8447V38.1764C67.1447 37.8338 67.9841 37.6651 68.83 37.6823C71.188 37.6823 72.906 39.2992 72.906 42.5442C72.906 45.7892 71.188 47.3949 68.83 47.3949" fill="white"/>
<path d="M78.9804 47.3389C78.2038 47.3498 77.4351 47.1807 76.7348 46.8449L77.1165 45.868C77.686 46.1631 78.3167 46.3207 78.958 46.3284C80.1594 46.3284 81.0016 45.7333 81.0016 44.689C81.0016 43.6448 80.1707 43.2967 79.2836 42.9037C78.1608 42.376 76.8246 41.7248 76.8246 40.1752C76.8266 39.8108 76.9058 39.4509 77.0569 39.1192C77.208 38.7875 77.4275 38.4916 77.7012 38.2508C77.9748 38.0101 78.2963 37.83 78.6445 37.7223C78.9927 37.6147 79.3598 37.582 79.7215 37.6264C80.438 37.607 81.1469 37.7775 81.7763 38.1204L81.3946 39.0412C80.8807 38.7616 80.3065 38.6113 79.7215 38.6033C78.6661 38.6033 77.9138 39.1647 77.9138 40.1303C77.9138 41.096 78.8569 41.5451 79.7215 41.9381C80.8444 42.4321 82.0907 43.0609 82.0907 44.6329C82.0907 46.2049 80.8219 47.3389 78.9468 47.3389" fill="white"/>
<path d="M85.0776 50.0001H83.9547L84.999 47.1593L82.3603 40.1304H83.5505L85.3358 45.2842C85.436 45.6164 85.5185 45.9538 85.5828 46.2948C85.6411 45.9525 85.7236 45.6148 85.8299 45.2842L87.5815 40.1753H88.7043L85.0776 50.0001Z" fill="white"/>
<path d="M91.1858 47.339C90.4644 47.3377 89.7532 47.1686 89.1085 46.8449L89.4903 46.0365C90.0104 46.3118 90.5863 46.4654 91.1745 46.4856C92.0728 46.4856 92.6791 46.0365 92.6791 45.3628C92.6791 44.6891 92.0728 44.3298 91.2531 44.0266C90.4335 43.7234 89.2882 43.2182 89.2882 41.9606C89.2882 40.703 90.1303 40.063 91.6237 40.063C92.3086 40.052 92.9837 40.2266 93.5774 40.5683L93.1957 41.3318C92.7503 41.0666 92.243 40.9233 91.7247 40.9163C90.8714 40.9163 90.3998 41.3655 90.3998 41.9606C90.3998 42.5557 90.9724 42.9599 91.7472 43.2518C92.7914 43.6336 93.8132 44.0378 93.8132 45.3628C93.8132 46.6877 92.8476 47.3727 91.1858 47.3727" fill="white"/>
<path d="M97.1704 47.2827C96.9158 47.3087 96.6586 47.2766 96.4182 47.189C96.1777 47.1014 95.9602 46.9605 95.782 46.7768C95.6037 46.5932 95.4694 46.3716 95.389 46.1286C95.3086 45.8856 95.2842 45.6276 95.3177 45.3739V40.9948H94.3184V40.1752H95.329V38.4797L96.3844 38.1316V40.1752H97.9003V40.9948H96.3732V45.329C96.3636 45.4671 96.3849 45.6057 96.4355 45.7345C96.4862 45.8634 96.5649 45.9794 96.666 46.074C96.7671 46.1686 96.888 46.2396 97.0199 46.2816C97.1518 46.3237 97.2915 46.3358 97.4287 46.3171C97.5845 46.3163 97.7395 46.2937 97.889 46.2497V47.1592C97.6598 47.2467 97.4157 47.2887 97.1704 47.2827Z" fill="white"/>
<path d="M101.482 40.8713C100.247 40.8713 99.4498 41.8594 99.4274 43.4426L103.301 42.9036C103.301 41.5225 102.583 40.8713 101.527 40.8713H101.482ZM104.334 43.51L99.5397 44.2061C99.5393 44.5107 99.6009 44.8122 99.7207 45.0922C99.8405 45.3723 100.016 45.625 100.237 45.8351C100.457 46.0452 100.718 46.2082 101.004 46.3142C101.289 46.4202 101.593 46.467 101.898 46.4518C102.56 46.4583 103.214 46.3082 103.806 46.0139L104.155 46.8336C103.434 47.1801 102.641 47.3495 101.841 47.3276C99.7418 47.3276 98.473 45.9802 98.473 43.6671C98.473 41.3541 99.5958 40.0179 101.538 40.0179C101.929 39.9986 102.32 40.065 102.682 40.2125C103.045 40.3599 103.37 40.5849 103.637 40.8716C103.903 41.1583 104.104 41.4998 104.224 41.8722C104.345 42.2445 104.382 42.6387 104.334 43.0271C104.334 43.1731 104.334 43.3303 104.334 43.4987" fill="white"/>
<path d="M113.687 47.1592V42.3647C113.695 42.1657 113.659 41.9676 113.584 41.7833C113.509 41.599 113.395 41.4329 113.251 41.2959C113.106 41.1589 112.934 41.0542 112.746 40.9888C112.558 40.9233 112.359 40.8986 112.16 40.9162C111.878 40.9054 111.596 40.9538 111.333 41.0582C111.07 41.1626 110.832 41.3207 110.633 41.5225V47.1592H109.51V42.1962C109.51 41.399 108.848 40.9162 107.871 40.9162C107.396 40.9134 106.924 40.9971 106.479 41.1632V47.1592H105.356V40.5344C106.122 40.2039 106.947 40.032 107.781 40.0292C108.192 39.9959 108.604 40.0509 108.992 40.1903C109.379 40.3298 109.732 40.5505 110.027 40.8376C110.657 40.3119 111.452 40.0256 112.273 40.0292C112.582 39.9985 112.894 40.0344 113.188 40.1344C113.482 40.2344 113.752 40.3962 113.978 40.6089C114.205 40.8216 114.383 41.0803 114.502 41.3676C114.62 41.655 114.675 41.9643 114.664 42.2748V47.1592H113.687Z" fill="white"/>
<path d="M117.831 47.3389C117.106 47.3361 116.391 47.1671 115.742 46.8448L116.135 46.0139C116.655 46.2893 117.231 46.4428 117.819 46.4631C118.718 46.4631 119.313 46.0139 119.313 45.3402C119.313 44.6665 118.718 44.3072 117.898 44.004C117.078 43.7009 115.933 43.1956 115.933 41.938C115.933 40.6804 116.775 40.0404 118.257 40.0404C118.946 40.028 119.625 40.2026 120.222 40.5457L119.841 41.3092C119.395 41.0455 118.888 40.9023 118.37 40.8938C117.516 40.8938 117.033 41.3429 117.033 41.938C117.033 42.5331 117.606 42.9373 118.392 43.2293C119.436 43.611 120.447 44.0153 120.447 45.3402C120.447 46.6652 119.492 47.3501 117.831 47.3501" fill="white"/>
</svg>
